X:3443
T:Cornwallis March. JC.186
M:C|
L:1/8
Q:130
S:John Clare,Poet,Helpstone (1793-1864)
R:March
O:England
A:Northamptonshire
N:
Z:P Headford
K:D
A2|d3de3e|a3fd2A2|B3c edcB|BAAAA2a>f|!
g2e2e>e g>e|a2f>ff2A2|Bdgb|f2e2|d2d>dd2:|!
|:"qu"A2|e2e>ef2f>f|a3g gfed|e2e>e bged|c2e>e"qu"e2AB/c/|!
d3c cB BA|B3A AGFE|Bege d2c2|d2d>dd2:|]


